src/icons/algolia.svg

<?xml version="1.0" encoding="UTF-8" standalone="no"?>
<svg width="38px" height="12px" viewBox="0 0 38 12" version="1.1" xmlns="http://www.w3.org/2000/svg" xmlns:xlink="http://www.w3.org/1999/xlink">
    <!-- Generator: Sketch 3.7 (28169) - http://www.bohemiancoding.com/sketch -->
    <title>Group</title>
    <desc>Created with Sketch.</desc>
    <defs></defs>
    <g id="Page-1" stroke="none" stroke-width="1" fill="none" fill-rule="evenodd">
        <g id="Group">
            <path d="M22.7598077,4.31665385 L22.2614231,6.11142308 L23.8669231,5.21769231 C23.6330769,4.78288462 23.2355385,4.45476923 22.7598077,4.31738462 L22.7598077,4.31665385 Z M18.8246154,6.14942308 C18.8246154,8.07134615 20.3563077,9.63080769 22.2482692,9.63080769 C24.1387692,9.63080769 25.6719231,8.06696154 25.6719231,6.14503846 C25.6719231,4.22311538 24.1387692,2.66657692 22.2482692,2.66657692 C20.3555769,2.66657692 18.8238846,4.22311538 18.8238846,6.14503846 L18.8246154,6.14942308 Z M22.2482692,3.66261538 C23.5958077,3.66261538 24.6941538,4.77776923 24.6941538,6.14723077 C24.6941538,7.51815385 23.5950769,8.63403846 22.2460769,8.63403846 C20.8992692,8.63403846 19.8016538,7.51815385 19.8016538,6.14942308 C19.8016538,4.77776923 20.8992692,3.66261538 22.2497308,3.66261538 L22.2482692,3.66261538 Z M23.4284615,2.23615385 C23.4284615,2.21642308 23.4321154,2.204 23.4321154,2.19084615 L23.4321154,1.87661538 C23.4321154,1.5295 23.1573462,1.24815385 22.8182692,1.24815385 L21.7425769,1.24815385 C21.4027692,1.24815385 21.1287308,1.52365385 21.1287308,1.86930769 L21.1287308,2.17842308 C21.4707308,2.07611538 21.8317308,2.02496154 22.2029615,2.02496154 C22.6311923,2.02496154 23.0418846,2.09073077 23.4284615,2.22957692 L23.4284615,2.23615385 Z M19.6737692,2.84561538 C19.4340769,2.60153846 19.0453077,2.60153846 18.8056154,2.84561538 L18.696,2.95523077 C18.4570385,3.19857692 18.4570385,3.59684615 18.696,3.84092308 L18.8114615,3.95638462 C19.0599231,3.55226923 19.3741538,3.19857692 19.7358846,2.90407692 L19.6745,2.83830769 L19.6737692,2.84561538 Z" id="Shape" fill="#00B7E5"></path>
            <path d="M6.68653846,9.28076923 C6.54476923,8.91757692 6.41323077,8.56096154 6.29046154,8.21019231 L5.90461538,7.13961538 L2.02934615,7.13961538 L1.24961538,9.28076923 L0,9.28076923 C0.328846154,8.39434615 0.638692308,7.57369231 0.926615385,6.821 C1.216,6.06684615 1.49661538,5.35215385 1.77284615,4.67546154 C2.05053846,3.99584615 2.32676923,3.35276923 2.59715385,2.73673077 C2.87046154,2.12069231 3.15253846,1.5105 3.45215385,0.900307692 L4.5505,0.900307692 C4.84573077,1.50392308 5.13146154,2.11338462 5.40257692,2.73015385 C5.67515385,3.34619231 5.94846154,3.98853846 6.22469231,4.66888462 C6.50019231,5.34119231 6.783,6.05734615 7.07238462,6.81003846 C7.35957692,7.56273077 7.66869231,8.38119231 7.999,9.26542308 L6.688,9.26542308 L6.68580769,9.25811538 L6.68653846,9.28076923 Z M5.56115385,6.175 C5.29515385,5.47346154 5.035,4.79384615 4.77557692,4.13907692 C4.51834615,3.48138462 4.24942308,2.85146154 3.96661538,2.24638462 C3.67723077,2.85438462 3.40757692,3.48430769 3.1445,4.14053846 C2.88873077,4.79823077 2.6315,5.47565385 2.37426923,6.17719231 L5.56042308,6.17719231 L5.56042308,6.175 L5.56115385,6.175 Z M11.2648077,9.69876923 C10.5603462,9.68196154 10.0605,9.53069231 9.76526923,9.24569231 C9.47003846,8.96069231 9.32315385,8.51346154 9.32315385,7.90984615 L9.32315385,0.266 L10.469,0.0686923077 L10.469,7.72715385 C10.469,7.91423077 10.4836154,8.06915385 10.5157692,8.19192308 C10.5486538,8.31396154 10.602,8.41115385 10.6750769,8.48715385 C10.7518077,8.55876923 10.8548462,8.61576923 10.9768846,8.65084615 C11.1011154,8.68592308 11.2545769,8.71661538 11.4372692,8.74219231 L11.2765,9.6995 L11.2648077,9.69876923 Z M16.5380385,8.78092308 C16.4430385,8.84669231 16.2530385,8.92853846 15.9753462,9.03084615 C15.6976538,9.13315385 15.3688077,9.18211538 14.9888077,9.18211538 C14.6088077,9.18211538 14.2434231,9.12365385 13.9072692,9.00088462 C13.5711154,8.87884615 13.2715,8.68957692 13.0230385,8.43234615 C12.7745769,8.17657692 12.5772692,7.85503846 12.4311154,7.47503846 C12.2849615,7.09503846 12.2118846,6.63465385 12.2118846,6.1085 C12.2118846,5.64080769 12.2776538,5.21696154 12.4165,4.83696154 C12.5553462,4.44965385 12.7599615,4.1135 13.0230385,3.83580769 C13.2861154,3.55080769 13.6076538,3.33157692 13.9949615,3.17811538 C14.3749615,3.01734615 14.8061154,2.93696154 15.2884231,2.93696154 C15.8145769,2.93696154 16.2749615,2.9735 16.6768846,3.05388462 C17.0693077,3.12696154 17.4032692,3.20734615 17.6729231,3.27311538 L17.6729231,8.93657692 C17.6729231,9.9085 17.4171538,10.6246538 16.9129231,11.0631154 C16.4050385,11.5015769 15.6413846,11.7208077 14.6139231,11.7208077 C14.2171154,11.7208077 13.8393077,11.6842692 13.4848846,11.6258077 C13.1268077,11.5600385 12.8257308,11.4796538 12.5619231,11.3919615 L12.768,10.3981154 C12.9908846,10.4858077 13.2722308,10.5661923 13.6010769,10.6319615 C13.9299231,10.6977308 14.2748462,10.7415769 14.6278077,10.7415769 C15.3001154,10.7415769 15.7897308,10.6100385 16.0842308,10.3396538 C16.3809231,10.0692692 16.5336538,9.63811538 16.5336538,9.0535 L16.5336538,8.77580769 L16.5380385,8.78092308 Z M16.0703462,3.97538462 C15.8803462,3.94615385 15.6245769,3.93153846 15.2957308,3.93153846 C14.6891923,3.93153846 14.2141923,4.13176923 13.8853462,4.53076923 C13.5565,4.92903846 13.3957308,5.45884615 13.3957308,6.11653846 C13.3957308,6.48411538 13.4395769,6.79615385 13.5345769,7.05923077 C13.6295769,7.32230769 13.7538077,7.53934615 13.9145769,7.70669231 C14.0753462,7.87988462 14.2580385,8.0085 14.4626538,8.08523077 C14.6745769,8.16853846 14.8865,8.20726923 15.1057308,8.20726923 C15.4053462,8.20726923 15.6830385,8.17073077 15.9388077,8.08303846 C16.1945769,8.00265385 16.3918846,7.90765385 16.5380385,7.79073077 L16.5380385,4.07038462 C16.4284231,4.03823077 16.2749615,4.00753846 16.0776538,3.97903846 L16.0703462,3.97538462 Z M28.4568846,9.69876923 C27.7553462,9.68196154 27.2511154,9.53069231 26.9588077,9.24569231 C26.6665,8.96069231 26.5203462,8.51346154 26.5203462,7.90984615 L26.5203462,0.266 L27.6676538,0.0686923077 L27.6676538,7.72715385 C27.6676538,7.91423077 27.6822692,8.06915385 27.7188077,8.19192308 C27.7553462,8.31396154 27.8065,8.41115385 27.8722692,8.48423077 C27.9453462,8.56242308 28.0476538,8.61357692 28.1718846,8.65230769 C28.2961154,8.69103846 28.4495769,8.721 28.6322692,8.74365385 L28.4715,9.6995 L28.4568846,9.69876923 Z M30.7222692,1.52730769 C30.4884231,1.52730769 30.2911154,1.45788462 30.1303462,1.31976923 C29.9622692,1.18092308 29.8818846,0.996038462 29.8818846,0.762923077 C29.8818846,0.529076923 29.9622692,0.342730769 30.1303462,0.205346154 C30.2911154,0.0738076923 30.4884231,0.000730769231 30.7222692,0.000730769231 C30.9561154,0.000730769231 31.1534231,0.0738076923 31.3215,0.205346154 C31.4822692,0.344192308 31.5699615,0.534192308 31.5699615,0.768038462 C31.5699615,1.00188462 31.4895769,1.19188462 31.3215,1.32342308 C31.1607308,1.46226923 30.9561154,1.53534615 30.7281154,1.53534615 L30.7222692,1.52730769 Z M30.0865,2.70238462 L31.3872692,2.70238462 L31.3872692,9.21061538 L30.0791923,9.21061538 L30.0791923,2.70238462 L30.0865,2.70238462 Z M35.3918846,2.51238462 C35.8595769,2.51238462 36.2468846,2.57523077 36.5684231,2.70092308 C36.8899615,2.82807692 37.1457308,3.00638462 37.3430385,3.23730769 C37.5330385,3.46238462 37.6791923,3.73788462 37.7595769,4.05869231 C37.8472692,4.37292308 37.8838077,4.72661538 37.8838077,5.111 L37.8838077,9.36188462 L37.4672692,9.43496154 C37.2918846,9.4715 37.0799615,9.49342308 36.8607308,9.52265385 C36.6415,9.55188462 36.3930385,9.57380769 36.1299615,9.59573077 C35.8668846,9.61765385 35.6038077,9.63226923 35.3480385,9.63226923 C34.9826538,9.63226923 34.6450385,9.59573077 34.3373846,9.51534615 C34.0304615,9.44226923 33.7659231,9.31073077 33.5408462,9.14265385 C33.3186923,8.97457692 33.1462308,8.74803846 33.0183462,8.46303846 C32.8911923,8.18534615 32.8283462,7.84919231 32.8283462,7.45457692 C32.8283462,7.07457692 32.9014231,6.75303846 33.0475769,6.48996154 C33.1915385,6.21957692 33.3888462,6.00034615 33.6395,5.83957692 C33.8901538,5.67880769 34.1802692,5.55457692 34.5127692,5.47419231 C34.8438077,5.40111538 35.1923846,5.35726923 35.5577692,5.35726923 C35.6746923,5.35726923 35.796,5.36457692 35.9231538,5.377 C36.0473846,5.39161538 36.1643077,5.40988462 36.2761154,5.42815385 L36.5698846,5.48661538 L36.7416154,5.52680769 L36.7416154,5.18334615 C36.7416154,4.98603846 36.7226154,4.78142308 36.6802308,4.58630769 C36.6363846,4.389 36.5618462,4.21361538 36.4536923,4.06234615 C36.3440769,3.91107692 36.1979231,3.78830769 36.0137692,3.69696154 C35.8193846,3.60561538 35.5753077,3.55811538 35.2800769,3.55811538 C34.8949615,3.55811538 34.561,3.591 34.2738077,3.64580769 C33.9888077,3.70426923 33.7695769,3.76273077 33.6307308,3.82557692 L33.4940769,2.82442308 C33.6446154,2.75134615 33.8916154,2.68557692 34.2467692,2.61980769 C34.5902308,2.55257692 34.9702308,2.5175 35.3794615,2.5175 L35.3838462,2.5175 L35.3918846,2.51238462 Z M35.4941923,8.60992308 C35.7718846,8.60992308 36.0130385,8.60115385 36.2249615,8.58946154 C36.4368846,8.5785 36.6122692,8.55438462 36.7511154,8.52003846 L36.7511154,6.48923077 C36.6707308,6.44538462 36.5318846,6.40884615 36.3418846,6.37815385 C36.1591923,6.34746154 35.9253462,6.33211538 35.6622692,6.33211538 C35.4941923,6.33211538 35.3041923,6.34526923 35.1141923,6.37084615 C34.9241923,6.39788462 34.7415,6.45123077 34.5734231,6.53526923 C34.4126538,6.61857692 34.2738077,6.73111538 34.1715,6.87507692 C34.0618846,7.01903846 34.0092692,7.20903846 34.0092692,7.44507692 C34.0092692,7.88061538 34.1466538,8.18315385 34.4111923,8.35342308 C34.6742692,8.5215 35.0396538,8.60919231 35.4978462,8.60919231 L35.4934615,8.60919231 L35.4941923,8.60992308 Z" id="Shape" fill="#2B395C"></path>
        </g>
    </g>
</svg>

<svg xmlns="http://www.w3.org/2000/svg" width="38" height="12" viewBox="0 0 38 12">
  <g fill="none" fill-rule="evenodd">
    <path fill="#00B7E5" d="M22.76 4.317l-.5 1.794 1.607-.89c-.234-.43-.63-.76-1.107-.9zM18.825 6.15c0 1.92 1.53 3.48 3.423 3.48 1.89 0 3.424-1.563 3.424-3.485s-1.533-3.478-3.424-3.478c-1.892 0-3.424 1.556-3.424 3.478v.004zm3.423-2.487c1.348 0 2.446 1.115 2.446 2.484 0 1.37-1.1 2.487-2.448 2.487-1.347 0-2.444-1.116-2.444-2.485 0-1.38 1.097-2.49 2.448-2.49h-.002zm1.18-1.427c0-.02.004-.032.004-.045v-.31c0-.34-.275-.63-.614-.63h-1.075c-.34 0-.614.28-.614.63v.31c.34-.1.7-.15 1.07-.15.43 0 .84.07 1.22.21v.01zm-3.754.61c-.24-.244-.63-.244-.868 0l-.11.11c-.24.243-.24.64 0 .885l.115.12c.25-.4.57-.75.93-1.05l-.06-.06v.01z"/>
    <path fill="#2B395C" d="M6.687 9.28c-.142-.362-.274-.72-.397-1.07l-.385-1.07H2.03l-.78 2.14H0c.33-.886.64-1.706.927-2.46.29-.753.57-1.468.846-2.145.278-.68.554-1.322.824-1.938.273-.616.556-1.227.855-1.837h1.1c.294.604.58 1.213.85 1.83.273.616.546 1.26.823 1.94.275.67.558 1.387.847 2.14.288.753.597 1.57.927 2.455H6.68l-.002-.007v.023zM5.56 6.176c-.265-.702-.525-1.38-.784-2.036-.258-.66-.527-1.29-.81-1.894-.29.608-.558 1.238-.822 1.895-.255.66-.513 1.34-.77 2.04H5.56zM11.266 9.7c-.705-.018-1.205-.17-1.5-.454-.295-.285-.442-.733-.442-1.336V.266L10.47.07v7.657c0 .187.014.342.046.465.033.122.086.22.16.295.076.072.18.13.3.164.125.04.28.07.46.1l-.16.96h-.01zm5.273-.92c-.1.067-.29.15-.57.25-.28.103-.61.152-.99.152s-.75-.058-1.09-.18c-.34-.123-.64-.312-.89-.57-.25-.255-.45-.577-.6-.957-.15-.38-.22-.84-.22-1.366 0-.47.07-.9.203-1.28.14-.39.345-.73.61-1 .26-.29.582-.51.97-.66.38-.16.81-.24 1.292-.24.525 0 .985.03 1.39.11.39.07.723.15.993.22v5.67c0 .97-.26 1.69-.76 2.12-.51.44-1.275.66-2.3.66-.4 0-.777-.04-1.13-.1-.36-.06-.66-.14-.925-.23l.207-.99c.223.09.504.17.833.23.33.07.676.11 1.03.11.67 0 1.16-.13 1.457-.4.3-.27.45-.7.45-1.29v-.28h.006zm-.47-4.805c-.19-.03-.45-.043-.78-.043-.61 0-1.08.2-1.41.6-.33.397-.49.927-.49 1.585 0 .367.04.68.14.942.09.26.22.48.38.64.16.17.34.3.54.38.21.08.42.12.64.12.3 0 .57-.04.83-.13.25-.08.45-.18.59-.29V4.07c-.11-.032-.26-.062-.46-.09l-.01-.005zM28.45 9.7c-.702-.018-1.206-.17-1.498-.454-.296-.285-.44-.733-.44-1.336V.266l1.15-.196v7.657c0 .187.013.342.05.465.036.122.087.22.153.292.074.078.177.13.3.168.125.04.28.07.46.092l-.16.956h-.014zm2.265-8.173c-.234 0-.43-.07-.59-.207-.17-.14-.25-.324-.25-.557 0-.234.08-.42.25-.558.16-.13.36-.204.593-.204.235 0 .43.08.6.21.16.14.25.33.25.57 0 .24-.08.43-.247.56-.16.14-.36.21-.59.21v-.01zm-.636 1.175h1.3v6.51h-1.3V2.7zm5.3-.19c.47 0 .85.063 1.18.19.32.126.57.304.77.535.19.225.33.5.41.822.08.31.12.66.12 1.05v4.25l-.42.07c-.18.03-.39.06-.61.09-.216.03-.465.05-.73.07-.26.02-.52.03-.78.03-.365 0-.7-.04-1.01-.12-.31-.08-.57-.21-.797-.37-.22-.17-.394-.4-.52-.68s-.19-.62-.19-1.01c0-.38.074-.7.22-.97.145-.27.34-.49.59-.65.253-.16.543-.29.876-.37.33-.07.68-.12 1.043-.12.12 0 .24.01.37.02l.35.05.292.06.17.04v-.34c0-.2-.02-.4-.06-.6-.05-.2-.12-.37-.23-.53-.11-.15-.26-.27-.44-.363-.198-.09-.44-.14-.737-.14-.38 0-.72.032-1 .09-.288.055-.507.114-.646.18l-.122-1c.15-.074.4-.14.75-.205.344-.07.724-.11 1.133-.11h.002v-.01zm.1 6.098c.28 0 .52-.01.73-.02.21-.01.39-.036.52-.07V6.49c-.08-.045-.22-.08-.41-.112-.19-.03-.42-.046-.68-.046-.17 0-.36.013-.55.04-.19.026-.37.08-.54.163-.16.084-.3.196-.4.34-.11.144-.17.334-.17.57 0 .436.14.738.4.908.265.168.63.256 1.09.256h-.006z"/>
  </g>
</svg>
